X: 11151
M: 2/4
L: 1/16
K: A
E>A |\
.c2.c2.B2.B2 | (A4 E2) (A>c) |\
e2e2 f2f2 | d6 (E>B) |\
.d2.d2 .c2.c2 | (B4 F2) d>B |\
|: (E>c) |\
.e2.e2.d2.d2 | (c4 F2)ec |\
.d2.d2.f2.f2 | (A4 G2) E>B |\
.d2.d2.B2.B2 | e3a c'2(e>c) |\
K: C
EA |\
c4 {c}B2AB | A4 z2Ac |\
e4 ({e}d2cd) | c4 z2Ac |\
f4 {f}e2de | d6 ef |\
g2e2f2B2 | B4 c2 :|
|: (ce) |\
g4 (d^cBc) | d4 z2(de) |\
f4 ({_B}A2^GA) | ^G4 z2(Ee) |\
^d4 ({e}=d2cd) | c4 z2c2 |\
(B3c/d/) A2^G2 | {G}"_D.C.Majore"A6 |]


